X:1
T:Alleluia - Vecchi
T:James Gibb editions
T:#
%%score [ 1 2 { 3 | 4 } 5 ]
L:1/8
Q:1/4=100
M:4/4
K:G
V:1 treble nm="Soprano" snm="S"
V:2 treble nm="Alto" snm="A"
V:3 treble-8 nm="Tenor I" snm="T"
V:4 treble-8 
V:5 bass nm="Bass" snm="B"
V:1
"^Apocalypse 19: 5-7 (Vulgate)" z8 | %1
w: |
"^Alleluia, laudem dicite""^Orazio Vecchi\n(1550-1605)"!f! d4 c2 A2 | B2 B4 (A2- | AG G4) F2 | %4
w: Al- le- lu-|ia, al- le\-|* * * lu-|
 (G2 FE D2) G2 |[M:4/4] (GABG A2) A2 | B2!mf! !>!d2 B2 d2- | dc B2 A2 B2 | (cB BA/G/ A4) | B4 z4 | %10
w: ia, * * * al-|le\- * * * * lu-|ia. Lau- dem di\-|* ci- te De- o|no\- * * * * *|stro,|
 z8 | z4 z2!f! d2 | c2 A2 (BcdA | c2) e2 (d2 B2 | A2!>(! G4) F2!>)! | G8 | z4 z2!mf! G2 | %17
w: |al-|le- lu- ia, * * *|* al- le\- *|* * lu-|ia.|o-|
 d2 !>!d4 c2 | B4 A4 | z4 z2!<(! d2 | G4!<)! A2 A2 |!f!!>(! c4 B4!>)! | z2!f! d2 c2 A2 | %23
w: mnes ser- vi|e- ius,|pu-|sil- li et|ma- gni,|al- le- lu-|
 B2 (G3 A B2) | c2 d2 G4 |!mf! B6 B2 | B4 A4- | A2 A2 A4 | z8 | z8 | z8 | z4 z2!f! d2 | c2 A2 B4 | %33
w: ia, al\- * *|le- lu- ia.|Quo- ni-|am, quo\-|* ni- am,||||al-|le- lu- ia,|
 z2!mf! B2 A2 F2 | A4 z2 c2 | A2 ^G2 A4 | z2!f! A2 (BcdB | cB BA/G/ A4) | G2 G2 d2 d2 | e4 d4 | %40
w: al- le- lu-|ia, al-|le- lu- ia.|Gau- de\- * * *||mus et ex- ul-|te- mus,|
 z8 | z2 G2 (ABcA | B3) G (c3 d | e2 d2 c3 B |!>(! A4)!>)! G4 | z8 | z4 z2!mf! G2 | d4 d2 d2- | %48
w: |et ex\- * * *|* ul- te\- *||* mus,||et|de- mus e\-|
 d2 ^c2 (d2 =cB | A4 A2 B2 | (G3 A B2 A2- | AG G4 F2) | G4 z2!f! d2 | e2 c2 d4 | z2 c2 d2 B2 | %55
w: * i glo\- * *|* ri- am|sem\- * * *||per, al-|le- lu- ia,|al- le- lu-|
 c4 z2 B2 | c2 A2 B4 | z2 A2 B2 G2 | A4 z2 G2 | A2 F2 G4 | z2 F2 G2 E2 | F4 G2 G2- | %62
w: ia, al-|le- lu- ia,|al- le- lu-|ia, al-|le- lu- ia,|al- le- lu-|ia, al- le\-|
 G2"^rit."[Q:1/4=99] F[Q:1/4=97]E[Q:1/4=94] F2)[Q:1/4=91] F2 |"^meno vivo"[Q:1/4=88] G8 | %64
w: * * * * lu-|ia,|
[Q:1/4=86] z2[Q:1/4=85] d2[Q:1/4=84] e2[Q:1/4=83] c2 | %65
w: al- le- lu-|
[Q:1/4=82] d2[Q:1/4=10]!ff![Q:1/4=81] B2[Q:1/4=80] c3[Q:1/4=80] c |[Q:1/4=80] !fermata!B8 |] %67
w: ia, al- le- lu-|ia.|
V:2
 z8 | z2!f! D2 E2 F2 | (G3 F/E/ F2) E2 | D2 D2 D4 | z2 A2 G2 (E2- |[M:4/4] EF G4 F2) | %6
w: |Al- le- lu-|ia, * * * al-|le- lu- ia,|al- le- lu\-||
 G2!mf! !>!D4 B,2 | D3 E F2 G2 | C2 (G4 F2) | G4 z4 | z8 | z4!f! D4 | E2 F2 G2 F2 | G2 A2 D2 G2 | %14
w: ia. Lau- dem|di- ci- te De-|o no\- *|stro,||al-|le- lu- ia, al-|le- lu- ia, al-|
 (E4!>(! D3 C!>)! | B,2) E2 D4 | z2!mf! D2 G2 !>!G2- | G2 F2 (E3 F | G4) F4 | z2 G2 D4 | %20
w: le\- * *|* lu- ia.|O- mnes ser\-|* vi e\- *|* ius,|pu- sil-|
!<(! E2 E2!<)! F4 | G2!f! A2 F2 G2 | (B4 A4) | z8 | z4 z2!mf! G2- | G2 G2 G4- | G4 F4- | F2 F2 F4 | %28
w: li et ma-|gni, al- le- lu-|ia. *||Quo\-|* ni- am,|* quo\-|* ni- am,|
 z8 | z8 | z8 | z2!f! E2 D2 B,2 | (CDEF G4) | z2!mf! G2 F2 D2 | E4 z2 G2 | (F2 D4) ^C2 | %36
w: |||al- le- lu-|ia, * * * *|al- le- lu-|ia, al-|le\- * lu-|
 D4 z2!f! B,2 | (EFGE F4) | G4 z2 G2 | (EDEF GA B2) | A4 D4 | G4 z2 E2 | F2 G2 (CDEF | %43
w: ia. Gau-|de\- * * * *|mus et|ex\- * * * * * *|ul- te-|mus, et|ex- ul- te\- * * *|
 GABG AG G2- |!>(! GF/E/ F2)!>)! G4 | z4 z2!mf! D2 | G4 G2 G2- | G2 F2 B2 A2 | (B2 AG F2) G2 | %49
w: |* * * * mus,|et|de- mus e\-|* i glo- ri-|am * * * sem-|
 E4 z4 | z4 z2 D2 |!<(! E2 C2 D2 F2!<)! | E2 G2 F4 |!f! A4 F2 G2 | E4 z2 G2 | E2 =F2 E4 | %56
w: per.|al-|le- lu- ia, al-|le- lu- ia,|al- le- lu-|ia, al-|le- lu- ia,|
 z2 D2 B,2 G2 | F2 F2 (GFED | E2) D2 D4 | z2 D2 E2 C2 | D4 z4 | D4 E2 C2 | D8 | B,4 C2 G,2 | %64
w: al- le- lu-|ia, al- le\- * * *|* lu- ia,|al- le- lu-|ia,|al- le- lu-|ia,|al- le- lu-|
 B,2 G4 E2 | G8 | !fermata!G8 |] %67
w: ia, al- le-|lu-|ia.|
V:3
!f! d6 c2 | (B3 A/G/ A4) | G4 z4 | z4 z2 d2 | c2 A2 B2 G2- |[M:4/4][K:treble-8] G2 E2 A4 | G4 z4 | %7
w: Al- le-|lu\- * * *|ia,|al-|le- lu- ia, al\-|* le- lu-|ia.|
 z8 | z4 z2!mf! !>!d2 | B2 d3 c B2 | e4 A2 (B2- | BA A3 G/F/ GF | A4) G2!f! D2 | (E3 F GF B2) | %14
w: |Lau-|dem di- ci- te|De- o no\-||* stro, al-|le\- * * * *|
 (c3 B!>(! A4)!>)! | G4 z2!mf! G2 | d2 d4 c2 | B2 A2 z4 | z4 z2 d2 | (G3 A!<(! B4) | %20
w: lu\- * *|ia. O-|mnes ser- vi|e- ius,|pu-|sil\- * *|
 c2!<)! B2!f! (d4 |!>(! e4) d4-!>)! | d4 z4 |!f! d4 c2 B2 | (A3 B c4) |!mf! d6 d2 | d4 z4 | %27
w: li et ma\-|* gni,||Al- le- lu-|ia. * *|Quo- ni-|am|
 z4 z2 d2 | d2 d2 e3 e | d2 d4 e2 | d4 c2 B2- | B2!>(! A4 ^G2!>)! | A4 z2!f! e2 | d2 B2 c2 A2 | %34
w: re-|gna- vit Do- mi-|nus De- us|no- ster o\-|* mni- po-|tens, al-|le- lu- ia, al-|
!>(! c4 d2!>)! G2 | z4 z2!f! e2 | (fgaf g2) d2 | z4 z2 d2 | (GABG A2) B2 | z2 G2 (BcdB | %40
w: le- lu- ia.|Gau-|de\- * * * * mus,|gau-|de\- * * * * mus|et ex- * * *|
 edef g3) f | e4 A4 | z2 G2 (ABcA | B2 d2 e2 c2 | z2!mf! A2 B4 | B2 B4 A2 | (B3 A G2) G2 | A4 z4 | %48
w: * * * * * ul-|te- mus,|et ex- * * *|* ul- te- mus,|et de-|mus e- i|glo\- * * ri-|am,|
 z4 z2 d2- | dB ^c2 d4 | e4 f4) | e4 z2 d2 | B2 c2 A4- | A4 z4 | z2!f! A2 B2 d2 | (c2 BA B2) g2 | %56
w: glo\-|* ri- am sem\-||per, al-|le- lu- ia,||al- le- lu-|ia, * * * al-|
 e2 f2 g2 G2 | A2 A2 G4 | z2 D4 G2 | F2 A2 z2 G2 | A2 B2 G4 | z8 | z8 | d4 e2 c2 | d2 B2 c3 c | %65
w: le- lu- ia, al-|le- lu- ia,|al- le-|lu- ia, al-|le- lu- ia,|||al- le- lu-|ia, al- le- lu-|
 B2!ff! d2 e3 e | !fermata!d8 |] %67
w: ia, al- le- lu-|ia.|
V:4
 z8 | z8 |!f! d6 c2 | (B3 A/G/ A4) | G2 d4 c2 |[M:4/4][K:treble-8] B4 d4 | z4 z2!mf! !>!d2 | %7
w: ||Al- le-|lu\- * * *|ia, al- le-|lu- ia.|Lau-|
 B2 d3 c B2 | e2 e2 d4 | G4 z2 !>!d2 | B2 G3 F F2 | F2 E2 B4 | E2!f! c2 B2 A2 | (e3 d/c/ B4) | %14
w: dem di- ci- te|De- o no-|stro, lau-|dem di- ci- te|De- o no-|stro, al- le- lu-|ia. * * *|
 z2!f! G2 d2 !>!d2- | d2 c2 (B3 A | G2 A2 B2) G2 | z2 d2 A4 | B2 G2 d4 | B4 z4 | z8 | z8 | %22
w: O- mnes ser\-|* vi e\- *|* * * ius,|pu- sil-|li et ma-|gni,|||
 z2!f! d2 e2 f2 | (g3 f e2) d2 | =f2 f2!>(! (e3 d/c/!>)! | B4) z4 |!mf! d6 d2 | d8 | z2 B2 B2 c2 | %29
w: Al- le- lu-|ia, * * al-|le- lu- ia. * *||Quo- ni-|am|re- gna- vit|
 B3 B A2 B2- | B2 A2 G4 | F2!>(! E2 F2!>)! D2 | E2!f! c2 B2 G2 | B4 z4 | z2!mf! (A2 F2 E2) | %35
w: Do- mi- nus De\-|* us no-|ster o- mni- po-|tens, al- le- lu-|ia,|al\- * *|
 (F3 E/D/ E2) E2 | D4 z4 | z2!f! G2 d4 | B4 z2 G2 | c2 c2 d4 | c2 c2 (BcdB | c2) B2 z4 | z8 | %43
w: le\- * * * lu-|ia.|Gau- de-|mus et|ex- ul- te-|mus, gau- de\- * * *|* mus||
 z2 G2 c2 c2 |!>(! d4!>)! d2!mf! G2 | d4 d2 d2- | d2 e2 c2 B2 | d2 d2 g2 f2 | e4 d4 | z4 z2 d2- | %50
w: et ex- ul-|te- mus, et|de- mus e\-|* i glo- ri-|am, glo- ri- am|sem- per,|glo\-|
 dB ^c2 (d4 | =c3 B A4) | G4 z4 | z4 z2!f! d2 | c2 e2 d4 | z4 z2 G2 | A2 A2 (GABc | d2) (d3 c B2) | %58
w: * ri- am sem\-||per,|al-|le- lu- ia,|al-|le- lu- ia, * * *|* al\- * *|
 c2 A2 B2 B2 | d2 D2 G4 | z2 d2 B2 c2 | A2 B4 G2 | A8 | G8- | G8 | G8 | G8 |] %67
w: le- lu- ia, al-|le- lu- ia,|al- le- lu-|ia, al- le-|lu-|ia.||||
V:5
 z8 | z8 | z8 | z4!f! D,4 | E,2 F,2 G,2 C,2 |[M:4/4] E,4 D,4 | G,,8 | z8 | z8 | %9
w: |||Al-|le- lu- ia, al-|le- lu-|ia.|||
 z2!f! !>!G,2 F,2 G,2- | G,F, E,2 D,4- | D,2 C,2 B,,4 | A,,4 z2!f! D,2 | C,2 A,,2 B,,2 G,,2 | %14
w: Lau- dem di\-|* ci- te De\-|* o no-|stro, al-|le- lu- ia, al-|
!>(! C,4 D,4!>)! | G,,2!mf! C,2 G,2 !>!G,2- | G,2 F,2 E,4 | D,4 z4 | z2 G,2 D,4 | %19
w: le- lu-|ia. O- mnes ser\-|* vi e-|ius,|pu- sil-|
 E,2 E,2!<(! (G,3 F,!<)! | E,4 D,2!f! D2 | C2 A,2 B,2 (G,2- | G,A, B,2) C2 D2 | G,4 z2 G,2 | %24
w: li et ma\- *|* gni, al-|le- lu- ia, al\-|* * * le- lu-|ia, al-|
 =F,2 D,2 C,4 |!mf! G,6 G,2 | G,4 D,4- | D,2 D,2 D,4 | z2 G,2 E,2 C,2 | G,3 G, F,2 G,2- | %30
w: le- lu- ia.|Quo- ni-|am, quo\-|* ni- am|re- gna- vit|Do- mi- nus De\-|
 G,2 F,2 E,4 | D,2!>(! C,2 B,,3!>)! B,, | A,,2!f! A,2 G,2 E,2 | G,4 z2!mf! D,2 | %34
w: * us no-|ster o- mni- po-|tens, al- le- lu-|ia, al-|
 C,2 A,,2 B,,2 C,2 | D,2) B,,2 A,,4 | z2!f! D,2 G,4 | E,4 z2 D,2 | (E,F,G,E, F,2) G,2 | %39
w: le\- * * *|* lu- ia.|Gau- de-|mus, gau-|de\- * * * * mus|
 z2 C,2 G,2 G,2 | A,4 G,4 | z2 E,2 D,2 C,2 | (B,,3 C, A,,4) | G,,4 z4 | z2!mf! D,2 G,4 | %45
w: et ex- ul-|te- mus,|et ex- ul-|te\- * *|mus,|et de-|
 G,2 G,4 F,2 | (G,3 F, E,2) E,2 | D,4 z2 F,2 | G,2 A,2 B,2 G,2 | A,4 F,2 G,2 | E,4 D,4 | z4 D,4 | %52
w: mus e- i|glo\- * * ri-|am, et|de- mus e- i|glo- ri- am|sem- per,|al-|
 E,2 C,2 D,4 | z2!f! A,2 B,2 G,2 | A,4 z2 G,2 | A,2 =F,2 G,4 | z2 D,2 G,2 E,2 | D,4 z2 E,2 | %58
w: le- lu- ia,|al- le- lu-|ia, al-|le- lu- ia,|al- le- lu-|ia, al-|
 C,2 D,2 G,,4 | z2 D,2 C,2 E,2 | D,2 D,2 E,2 C,2 | D,2 B,,2 E,4 | D,8 | G,,2 G,2 C,2 C,2 | %64
w: le- lu- ia,|al- le- lu-|ia, al- le- lu-|ia, al- le-|lu-|ia, al- le- lu-|
 G,2 G,,2 (C,4 | G,4 C,3) C, | G,,8 |] %67
w: ia, al- le\-|* * lu-|ia.|

